X:366
T: Ich habe mir eine erwhlet (4-65), S. 84
N: P0626
O: Lothringen
S: PINCK, Louis: Verklingende Weisen Bd 4, Kassel 1939]
R: Liebeslied]
M: 3/4
L: 1/8
K: G
D2 | G3GG2 | A2d2c2 | BAG2
GB | d2d2d2 | e2d2c2 | B4
GA | B2B2dB | A2d2
dc | B2B2dB | A4
GA | B3cd2 | e2d2c2 | B4

